X:15839
T:Sport of the Chase, The
R:slip jig
Z:Also on G, #41
Z:id:hn-slipjig-42
M:9/8
K:A
A2A c2A cec|A2A c2A cec|D2D F2D FAF|E2E G2E GBG:|
A2a a2e cec|A2a a2e cec|d2d f2d faf|e2e g2e gbg|
aec aec aec|aec aec aec|fdB fdB fdB|geB geB geB||
